X:1
T:Stolto mio core
T:Tiburtio Massaino
T:Stolto mio core 
C:Tiburtio Massaino
%%score [ 1 2 3 4 ]
L:1/8
Q:1/4=96
M:4/2
K:C
V:1 alto1 nm="Canto" snm="C"
V:2 alto nm="Alto" snm="A"
V:3 tenor nm="Tenore" snm="T"
V:4 bass nm="Basso" snm="B"
V:1
 z16 |[K:D][K:treble] z16 | z16 | z16 | z16 | z16 | z16 | z16 | z16 | z16 | z4 A8 B4 | %11
w: ||||||||||Al mio|
 c6 c2 c4 d4- | d2 c2 B8 ^A4 | B16- | B16 | z16 | z16 | B8 d8- | d4 c4 B4 A4 | B6 A2 B2 c2 d4 | %20
w: ci- bo so- a-||ve,|_|||Gia non|_ m'e il pian- ger|gra- * * * *|
 G4 A4 A4 ^G4 | A16 | A16 | z16 | z16 | z16 | z4 e4 d4 c2 B2- | B2 A2 G4 F8 | z8 z4 e4 | %29
w: ve, il pian- ger|gra-|ve,||||Al- tr'e- sc'a- mor|_ non ha- ve,|Che|
 d4 c4 B2 c2 d4 | z4 A4 d4 B2 F2 | G4 F4 B8 | E4 z2 A2 F2 ^G2 A4- | A2 ^GF G4 A8 | z8 c8 | %35
w: fia dun- qu'il di giun|se'l ci- bo, se'l|ci- bo e gua-|i, se'l ci- bo e gua-|* * * * i,|O|
 A8 B6 A2 | B2 c2 d4 B2 =c4 B2- | B2 AG A4 B8 | z4 F4 ^G8 | A8 B8 | c8 d8- | d4 c4 B8- | B4 A4 z8 | %43
w: fal- so em- *|* * * pio si- gno-|* * * * re,|Che l'a-|spro tuo|do- lo|_ _ _|* re,|
 z8 z2 d4 B2- | B2 =c4 B4 ^A2 B4 | z4 B4 B6 B2 | G2 F2 E2 F2 G4 F4- | F2 E2 E6 ^DC D4 | E8 z4 B4 | %49
w: Di gio-|* ia et di pia- cer|cir- con di et|fa- * * * * *||sci, Et|
 c12 c4 | c8 c8 | c8 c8 | z2 d2 d2 c2 B4 c4 | z2 d2 dcBA B2 A2 G4 | F4 z2 d2 c2 B2 ^A4 | %55
w: la- cri-|mo- so|cre- sci|et lie- to na- sci,|et lie- * * * * to na-|sci, et lie- to na-|
 B4 z2 e2 d2 c2 B4 | ^A16- | A16 |] %58
w: sci, et lie- to na-|sci.|_|
V:2
 z16 |[K:D][K:treble] z16 | A8 G4 F4 | A8 D4 z2 D2 | F2 G2 A2 F2 G4 F4 | z8 F8 | ^G4 A4 B4 B4 | %7
w: ||Stol- to mio|co- re o-|ve si lie- to va- i,|Stol-|to mio co- re|
 z2 A2 G2 A2 B2 G2 F2 EF | G4 F2 D2 G2 A2 B2 G2 | B6 A2 G4 F4 | z8 F8 | F4 A6 A2 A4 | %12
w: o- ve si lie- to va- * *|* i, o- ve si lie- to|va- * * i,|Al|mio ci- bo so-|
 G4 F4 z4 F4- | F4 G6 F2 E2 D2 | G4 F4 E3 F G4 | E4 E4 E8 | F4 G6 F2 F4- | F4 E4 F8- | F8 z4 F4- | %19
w: a- ve, Ma|_ to- sto a me pian-|gen- do tor- ne- ra-|i, pian- gen-|do tor- ne- ra-|* * i,|_ Gia|
 F4 E8 F4 | B,4 E4 F4 E2 D2 | E8 E4 F4 | C4 F4 E8 | F8 z2 D4 B,2 | G4 F8 E4 | D8 C8 | %26
w: _ non m'e il|pian- ger gra- * *|* ve, il|pian- ger gra-|ve, Dun- que|di duol ti|pa- sci,|
 z4 B,4 A,6 B,2 | C2 D2 E6 ^D2 D4 | E8 z8 | z4 A4 G4 F4 | E2 E2 F6 E2 D2 C2 | D16 | C4 E4 D4 C4 | %33
w: Al- tr'e- sc'a-|mor non ha- * *|ve,|Che fia dun-|qu'il di giun se'l ci- bo e|gua-|i, se'l ci- bo e|
 B,8 A,8 | z8 E8 | F8 G8 | F4 F4 E8- | E8 ^D8 | z4 ^D8 E4- | E4 F8 ^G4- | G4 A8 =G4- | %41
w: gua- i,|O|fal- so em-|pio si- gno-|* re,|Che l'a-|* spro tuo|_ do- lo|
 G2 F2 F6 E2 E4 | F8 z8 | z8 F4 G4 | D2 E4 G2 F4 z4 | z4 F4 G6 F2 | E2 F2 G2 A2 B4 B4 | B16 | %48
w: _ _ _ _ _|re,|Di gio-|ia et di pia- cer|cir- con _|_ _ _ _ _ di et|fa-|
 B8 z4 ^G4 | A12 A4 | A8 ^G8 | A8 ^G8 | z2 B2 A2 A2 ^G4 A2 E2 | G2 F2 B,3 CDE F2 B,2 C2 | %54
w: sci, Et|la- cri-|mo- so|cre- sci|et lie- to na- sci, et|lie- to na- * * * * sci, et|
 D3 CDE F4 F2 F4 | F2 G2 G4 F2 F4 E2 | F16- | F16 |] %58
w: lie- * * * * to na-|sci, et lie- to na- *|sci.|_|
V:3
 z16 |[K:D][K:treble-8] z8 d8 | c4 d4 B4 A4 | z4 A4 B2 c2 d2 B2 | d4 c4 z8 | c8 d4 c4 | %6
w: |Stol-|to mio co- re|o- ve si lie- to|va- i,|Stol- to mio|
 e4 A4 z2 B2 d2 e2 | f2 d2 ed d4 c2 d2 A2 | B2 c2 d2 B2 =c4 B2 e2 | d2 e2 f2 d2 e4 d4 | z8 d8 | %11
w: co- re o- ve si|lie- to va- * * * i, o-|ve si lie- to va- i, o-|ve si lie- to va- i,|Al|
 A4 F6 F2 D4 | d8 c8 | B8 z4 B4 | B6 F2 G4 B4 | A8 ^G4 A4- | A2 F2 B6 A2 A2 GF | G8 F4 z2 B2 | %18
w: mio ci- bo so-|a- *|ve, Ma|to- sto a me pian-|gen- do tor-|* ne- ra- * * * *|* i, Gia|
 d12 c4 | B12 A4 | e4 A4 d4 d4- | d4 c2 B2 c4 d4 | e4 d8 c4 | d4 z2 A4 A2 B2 d2- | %24
w: non m'e il|pian- ger|gra- ve, il pian-|* * * * ger|gra- * *|ve, Dun- que di duol|
 d2 cB c4 d4 B4- | B4 ^A2 ^G2 A8 | B4 E4 F6 G2 | F4 E4 B4 B4 | z4 e4 d4 c4 | d2 e2 f4 z8 | %30
w: _ _ _ _ ti pa-||sci, Al- tr'e- sc'a-|mor non ha- ve,|Che fia dun-|qu'il di giun|
 z4 F4 G4 F4 | B4 A6 ^G2 G4 | A4 A4 B4 F4 | d8 c8 | z4 e8 A4- | A4 d8 e4- | e4 d4 g8- | %37
w: se'l ci- bo e|gua- * * *|i, se'l ci- bo e|gua- i,|O fal-|* so em- pio|_ si- gno-|
 g4 f2 e2 f8 | e4 B8 c4- | c4 d8 e4- | e4 A4 B8- | B4 A4 G8 | F4 z2 d4 B4 =c2- | c2 B4 ^A2 B8 | %44
w: |re, Che l'a-|* spro tuo|_ do- lo|_ _ _|re, Di gio- ia et|_ di pia- cer|
 z8 z4 e4 | d6 c2 B2 A2 B4- | B2 A2 G2 F2 E4 F4 | G6 FE F2 G2 F4 | E8 z4 e4 | e12 e4 | f8 ^e8 | %51
w: cir-|con _ _ _ _|_ _ _ _ _ di et|fa- * * * * *|sci, Et|la- cri-|mo- so|
 f8 ^e8 | z2 f2 f2 e2 e4 e2 A2 | BcdefedcBcdc e2 e2 | A4 B2 B2 c2 d2 c4 | d2 B2 B4 B2 A2 d2 B2 | %56
w: cre- sci|et lie- to na- sci, et|lie- * * * * * * * * * * * * to|na- sci, et lie- to na-|sci, et lie- to, et lie- to|
 c16 | c16 |] %58
w: na-|sci.|
V:4
 z16 |[K:D] F,8 G,4 F,4 | A,4 D,4 z4 D,4 | F,2 G,2 A,2 F,2 G,8 | F,4 z2 A,2 B,2 C2 D2 B,2 | %5
w: |Stol- to mio|co- re o-|ve si lie- to va-|i, o- ve si lie- to|
 A,6 G,2 F,8 | E,4 z4 G,8 | F,4 G,4 E,4 D,4 | z4 D,4 E,2 F,2 G,2 E,2 | G,4 F,4 z8 | z4 D,8 B,,4 | %11
w: va- * *|i, Stol-|to mio co- re|o- ve si lie- to|va- i,|Al mio|
 F,8 A,4 F,4 | B,8 F,8 | z4 E,4 G,6 F,2 | E,4 ^D,4 E,8 | C,16 | D,12 D,4 | E,8 B,,8 | z8 z4 F,4 | %19
w: ci- bo so-|a- ve,|Ma to- sto a|me pian- gen-|do|tor- ne-|ra- i,|Gia|
 G,12 F,4 | E,4 C4 B,8 | A,16- | A,16 | z4 D,6 D,2 G,4 | E,4 A,4 G,8 | F,16 | z16 | z8 z4 B,4 | %28
w: non m'e il|pian- ger gra-|ve,|_|Dun- que di|duol ti pa-|sci,||Che|
 A,4 G,4 F,2 G,2 A,4 | z8 z4 D,4 | C,4 D,4 B,,8- | B,,16 | A,,8 z8 | z16 | A,,16 | D,8 B,,8 | %36
w: fia dun- qu'il di giun|se'l|ci- bo e gua-||i,||O|fal- so em-|
 B,8 G,8 | =C8 B,8 | z16 | z16 | z16 | z16 | z4 F,4 G,4 D,2 E,2- | E,2 G,2 F,4 z8 | z8 z4 E,4 | %45
w: pio si-|gno- re,|||||Di gio- ia et di|_ pia- cer|cir-|
 G,2 A,2 B,2 A,2 G,2 F,2 E,2 D,2 | E,12 ^D,4 | E,8 B,,8 | z8 z4 E,4 | A,12 A,4 | F,8 C,8 | %51
w: con _ _ _ _ _ _ _|_ di et|fa- sci,|Et|la- cri-|mo- so|
 F,8 C,8 | z2 B,,2 D,2 A,,2 E,4 A,,4 | z4 B,4 G,2 F,2 E,4 | D,4 z2 B,,2 ^A,,2 B,,2 F,4 | %55
w: cre- sci|et lie- to na- sci,|et lie- to na-|sci, et lie- to na-|
 B,,2 E,2 E,F,G,A, B,2 F,2 G,4 | F,16- | F,16 |] %58
w: sci, et lie- * * * * to na-|sci.|_|

